packages/icons/src/queued.svg

<svg viewBox="0 0 14 11" xmlns="http://www.w3.org/2000/svg"><path d="m13.3636 0h-12.727236c-.168775 0-.330636.0670454-.449977.186387-.1193418.119341-.186387.281202-.186387.449977v3.818186c0 .16877.0670452.33063.186387.44997.119341.11934.281202.18639.449977.18639h12.727236c.1688 0 .3307-.06705.45-.18639.1194-.11934.1864-.2812.1864-.44997v-3.818186c0-.168775-.067-.330636-.1864-.449977-.1193-.1193416-.2812-.186387-.45-.186387zm-.6363 3.81818h-11.45457v-2.54545h11.45457z"/><path d="m13.3636 6.36328h-12.727236c-.168775 0-.330636.06705-.449977.18639-.1193418.11934-.186387.2812-.186387.44997 0 .16878.0670452.33064.186387.44998.119341.11934.281202.18639.449977.18639h12.727236c.1688 0 .3307-.06705.45-.18639.1194-.11934.1864-.2812.1864-.44998 0-.16877-.067-.33063-.1864-.44997-.1193-.11934-.2812-.18639-.45-.18639z"/><path d="m13.3636 8.91016h-12.727236c-.168775 0-.330636.06704-.449977.18638-.1193418.11934-.186387.28121-.186387.44998s.0670452.33064.186387.44998c.119341.1193.281202.1864.449977.1864h12.727236c.1688 0 .3307-.0671.45-.1864.1194-.11934.1864-.28121.1864-.44998s-.067-.33064-.1864-.44998c-.1193-.11934-.2812-.18638-.45-.18638z"/></svg>

<svg viewBox="0 0 14 11" xmlns="http://www.w3.org/2000/svg">
<path d="M13.3636 0H0.636364C0.467589 0 0.305728 0.0670454 0.186387 0.186387C0.0670452 0.305728 0 0.467589 0 0.636364V4.45455C0 4.62332 0.0670452 4.78518 0.186387 4.90452C0.305728 5.02386 0.467589 5.09091 0.636364 5.09091H13.3636C13.5324 5.09091 13.6943 5.02386 13.8136 4.90452C13.933 4.78518 14 4.62332 14 4.45455V0.636364C14 0.467589 13.933 0.305728 13.8136 0.186387C13.6943 0.0670454 13.5324 0 13.3636 0ZM12.7273 3.81818H1.27273V1.27273H12.7273V3.81818Z" />
<path d="M13.3636 6.36328H0.636364C0.467589 6.36328 0.305728 6.43033 0.186387 6.54967C0.0670452 6.66901 0 6.83087 0 6.99964C0 7.16842 0.0670452 7.33028 0.186387 7.44962C0.305728 7.56896 0.467589 7.63601 0.636364 7.63601H13.3636C13.5324 7.63601 13.6943 7.56896 13.8136 7.44962C13.933 7.33028 14 7.16842 14 6.99964C14 6.83087 13.933 6.66901 13.8136 6.54967C13.6943 6.43033 13.5324 6.36328 13.3636 6.36328Z" />
<path d="M13.3636 8.91016H0.636364C0.467589 8.91016 0.305728 8.9772 0.186387 9.09654C0.0670452 9.21588 0 9.37775 0 9.54652C0 9.71529 0.0670452 9.87716 0.186387 9.9965C0.305728 10.1158 0.467589 10.1829 0.636364 10.1829H13.3636C13.5324 10.1829 13.6943 10.1158 13.8136 9.9965C13.933 9.87716 14 9.71529 14 9.54652C14 9.37775 13.933 9.21588 13.8136 9.09654C13.6943 8.9772 13.5324 8.91016 13.3636 8.91016Z" />
</svg>
